X: 35942
T: Saraband
R: jig
M: 6/8
K: Gmajor
ggg ~f>ed|cd/c/B ~A2 G|BBc dde|f~^c>d d3:|
|:ddc cd/c/B|Bcd A2 B|cde d>cB/A/|B/c/ ~A>G G3:|

